X: 1
T:"All Aboard" -- Reel
M:2/4
L:1/16
R:reel
B:Ryan's Mammoth Collection
N:237
Z:Contributed by Ray Davies,  ray:davies99.freeserve.co.uk
K:D
u(FG)|\
AFDF AFDF | AGFE .D2(EF) | GECE GECE | GFED .C2(AG) |
FEFD defd | cBAF .G2(AG) | FEFD CDEG | F2D2 D2:|
|:A2|\
.d2.d2 .d2(ed) | d=cAB .=c2.G2 | .=c2.c2 .c2(dc) | BAGB .A2(AG) |
FEFD defd | =cBAF G2(AG) | FEFD CDEG | F2D2 D2 :|
